!!!COM: Beethoven, Ludwig van
!!!CDT: 1770///-1827///
!!!OTL: Piano Sonata no. 13 in E-flat major
!!!OTP: quasi una fantasia
!!!OPS: 27
!!!ONM: 1
!!!OMV: 2
!!!OMD: Allegro molto e vivace
**kern	**kern	**dynam
*staff2	*staff1	*staff1
*Ipiano	*Ipiano	*Ipiano
*>[I,A,A1,A,A2,B,B1,B,B2,C,C1,C,C2,D,D1,D,D2,E]	*>[I,A,A1,A,A2,B,B1,B,B2,C,C1,C,C2,D,D1,D,D2,E]	*>[I,A,A1,A,A2,B,B1,B,B2,C,C1,C,C2,D,D1,D,D2,E]
*>norep[I,A,A2,B,B2,C,C2,D,D2,E]	*>norep[I,A,A2,B,B2,C,C2,D,D2,E]	*>norep[I,A,A2,B,B2,C,C2,D,D2,E]
*>I	*>I	*>I
*clefF4	*clefG2	*clefG2
*k[b-e-a-]	*k[b-e-a-]	*k[b-e-a-]
*c:	*c:	*c:
*M3/4	*M3/4	*M3/4
*MM320	*MM320	*MM320
=1-	=1-	=1-
*^	*	*
4C/	(4CC\	2.r	p
4E-/	4EE-\	.	.
4G/	4GG\)	.	.
*v	*v	*	*
=2!|:	=2!|:	=2!|:
*>A	*>A	*>A
(4C\	(4c/	p
4E-\	4e-/	.
4G\)	4g/)	.
=3	=3	=3
(4c\	(4gg\	.
4e-\	4ee-\	.
4g\)	4cc\)	.
=4	=4	=4
(4Bn\	(4gg\	.
4d\	4dd\	.
4g\)	4bn\)	.
=5	=5	=5
(4BBn\	(4g/	.
4D\	4d/	.
4G\)	4Bn/)	.
=6	=6	=6
(4BB-\	(4g/	.
4D\	4d/	.
4G\)	4B-/)	.
*clefG2	*	*
=7	=7	=7
(4B-/	(4gg\	.
4d/	4dd\	.
4g/)	4b-\)	.
=8	=8	=8
(4An/	(4ff\	.
4c/	4cc\	.
4f/)	4an\)	.
*clefF4	*	*
=9	=9	=9
(4AAn/	(4f/	.
4C\	4c/	.
4F\)	4An/)	.
=10	=10	=10
(4AA-/	(4f/	.
4C\	4c/	.
4F\)	4A-/)	.
=11	=11	=11
(4A-\	(4ff\	.
4c\	4cc\	.
4f\)	4a-\)	.
=12	=12	=12
(4G\	(4ee-\	.
4c\	4cc\	.
4e-\)	4g/)	.
=13	=13	=13
4CC'/ 4C'/	4e-'/ 4ee-'/	f
4GG'/	4an'/	.
4AAn'/	4g'/	.
=14	=14	=14
4DD'/ 4D'/	4d'/ 4dd'/	.
4GG'/	4b-'/	.
4BB-'/	4g'/	.
=15	=15	=15
4DD'/ 4D'/	4d/ 4dd/	.
4FF#'/	4an'/	.
4AAn'/	4f#'/	.
=16	=16	=16
*>A1	*>A1	*>A1
(4GGG'/ 4GG'/	4g'/	p
4EE-\	4r	.
4DD\	4r	.
=17	=17	=17
*^	*	*
4C/	4CC\	2.r	p
4E-/	4EE-\	.	.
4G/	4GG\)	.	.
*v	*v	*	*
=18:|!	=18:|!	=18:|!
*>A2	*>A2	*>A2
(4GGG'/ 4GG'/	4g'/	p
4FFn\	4r	.
4EEn\	4r	.
=19	=19	=19
*^	*	*
4B-/	4DD-\	2.r	.
4F/	4FF\	.	.
4D-/	4BB-\)	.	.
*v	*v	*	*
=20!|:	=20!|:	=20!|:
*>B	*>B	*>B
*^	*	*
(4B-/	4CC\	2.r	.
4En/	4EEn\	.	.
4C/	4BB-\)	.	.
*v	*v	*	*
=21	=21	=21
(4EEn/	(4b-/	.
4GG/	4g/	.
4C/)	4c/)	.
=22	=22	=22
(4FF/	(4a-/	.
4AA-/	4f/	.
4C/)	4c/)	.
=23	=23	=23
*^	*	*
(4A-/	4CC\	2.r	.
4E-/	4EE-\	.	.
4C/)	4AA-\	.	.
=24	=24	=24	=24
(4G/	4BBBn\	2.r	.
4D/	4DD\	.	.
4BBn/)	4GG\	.	.
*v	*v	*	*
=25	=25	=25
(4BBn\	(4ff\	.
4D\	4dd\	.
4G\)	4g\)	.
=26	=26	=26
(4C\	(4ee-\	.
4E-\	4cc\	.
4G\)	4g\)	.
=27	=27	=27
*^	*	*
(4C/	4CC\	2.r	.
4E-/	4EE-\	.	.
4G/)	4GG\	.	.
*v	*v	*	*
=28	=28	=28
(4C\	(4c/	.
4E-\	4e-/	.
4G\)	4g/)	.
*clefG2	*	*
=29	=29	=29
(4c/	(4aa-\	<
4e-/	4ee-\	.
4a-/)	4cc\)	.
=30	=30	=30
(4Bn/	(4aa-\	.
4d/	4dd\	.
4a-/)	4bn\)	.
*clefF4	*	*
=31	=31	=31
(4BBn\	(4a-/	.
4D\	4d/	.
4A-\)	4Bn/)	.
=32	=32	=32
(4BB-\	(4g/	.
4D\	4d/	.
4G\)	4B-/)	.
=33	=33	=33
(4B-\	(4gg\	.
4d\	4dd\	.
4g\)	4b-\)	.
=34	=34	=34
(4An\	(4gg\	.
4c\	4cc\	.
4g\)	4an\)	.
=35	=35	=35
(4AAn/	(4g/	.
4C/	4c/	.
4G\)	4An/)	.
=36	=36	=36
(4AA-/	(4f/	.
4C/	4c/	.
4F\)	4A-/)	.
=37	=37	=37
(4A-\	(4ff\	.
4c\	4cc\	.
4f\)	4a-\)	.
=38	=38	=38
(4G\	(4ee-\	.
4c\	4cc\	.
4e-\)	4g\)	.
=39	=39	=39
4FF#'/ 4F#'/	4c'/ 4cc'/	f
4C/	4an'/	.
4E-'/	4e-'/	.
=40	=40	=40
4GG'/ 4G'/	4c'/ 4cc'/	.
4C'/	4g'/	.
4E-'/	4e-'/	.
=41	=41	=41
4GG'/ 4G'/	4Bn'/ 4bn'/	.
4BBn'/	4g'/	.
4D'/	4d'/	.
=42	=42	=42
*>B1	*>B1	*>B1
4CC\ 4C\	4c'/ 4e-'/ 4cc'/	p
(4BBBn\	4r	.
4CC\	4r	.
=43	=43	=43
*^	*	*
4B-/	4DD-\	2.r	.
4F/	4FF\	.	.
4D-/	4BB-\)	.	.
*v	*v	*	*
=44:|!	=44:|!	=44:|!
*>B2	*>B2	*>B2
4CC'/ 4C'/	4c'/ 4cc'/	.
4EE-'/	4g'/	.
4GG'/	4e-'/	.
=45	=45	=45
*^	*	*
4C'/	2r	4c'/	p
4r	.	4r	.
4E-'/	4AA-'\ 4C'\	4r	p
*v	*v	*	*
=46!|:	=46!|:	=46!|:
*>C	*>C	*>C
*^	*	*
4E-'/	4AA-'\ 4C'\	2.r	.
4r	4r	.	.
4E-'/	4AA-'\ 4C'\	.	.
=47	=47	=47	=47
4E-'/	4AA-'\ 4C'\	2.r	.
4r	4r	.	.
4E-'/	4AA-'\ 4C'\	.	.
=48	=48	=48	=48
4E-'/	4AA-'\ 4C'\	2.r	.
4A-'/	4r	.	.
4r	4AA-\ 4C\ 4E-\	.	.
*v	*v	*	*
=49	=49	=49
4AA-'/ 4C'/ 4E-'/	4r	.
4r	4c'/	<
4AA-'/ 4C'/ 4E-'/	4r	.
=50	=50	=50
4AA-'/ 4C'/ 4E-'/	4r	.
4r	4e-'/	.
4AA-'/ 4C'/ 4E-'/	4r	.
=51	=51	=51
4AA-'/ 4C'/ 4E-'/	4r	.
4r	4a-'/	.
4AA-'/ 4C'/ 4E-'/	4r	.
=52	=52	=52
4AA-'/ 4C'/ 4E-'/	4r	.
4r	4cc'\	.
4AA-'/ 4C'/ 4E-'/	4r	.
=53	=53	=53
4AA-'/ 4C'/ 4E-'/	4r	.
4r	4ee-'\	.
4AA-'/ 4C'/ 4E-'/	4r	.
=54	=54	=54
4AAn'\ 4C'\ 4E-'\ 4G-'\	2.gg-\	ff
4r	.	.
4AA'\ 4C'\ 4E-'\ 4G-'\	.	.
=55	=55	=55
4AAn'\ 4C'\ 4E-'\ 4G-'\	2.gg-\	.
4r	.	.
4AA'\ 4C'\ 4E-'\ 4G-'\	.	.
=56	=56	=56
4BB-'\ 4E-'\ 4Gn'\	4ggn'\	.
4r	4ee-'\	.
4BB-'\ 4E-'\ 4G'\	[4b-\	.
=57	=57	=57
4BB-'\ 4Dn'\ 4A-'\	4b-\]	.
4r	4a-/	.
4BB-'\ 4D'\ 4A-'\	4f/	.
=58	=58	=58
*>C1	*>C1	*>C1
*^	*	*
4G/	4EE-\ 4E-\	4e-/	p
4B-'/	4r	2r	.
4G'/	4r	.	.
=59	=59	=59	=59
4r	4E-'\	2.r	.
4r	4D-'\	.	.
4E-'/	4BB-'\	.	.
*v	*v	*	*
=60:|!	=60:|!	=60:|!
*>C2	*>C2	*>C2
*^	*	*
4G/	4EE-\ 4E-\	4e-/	p
4B-'/	4r	4r	.
4G'/	4r	4r	.
=61	=61	=61	=61
4E-'/	4r	2r	.
4r	4r	.	.
*v	*v	*	*
=!|:	=!|:	=!|:
*>D	*>D	*>D
4E-'\ 4B-'\ 4d-'\	4r	.
=62	=62	=62
4E-'\ 4B-'\ 4d-'\	2.r	.
4r	.	.
4E-'\ 4B-'\ 4d-'\	.	.
=63	=63	=63
4E-'\ 4B-'\ 4d-'\	2.r	.
4r	.	.
4E-'\ 4B-'\ 4d-'\	.	.
=64	=64	=64
4E-'\ 4B-'\ 4d-'\	4r	.
4r	4ff'\	pp
4E-'\ 4B-'\ 4d-'\	4ee-'\	.
=65	=65	=65
4E-'\ 4B-'\ 4d-'\	4r	.
4r	4dd-'\	.
4E-'\ 4B-'\ 4d-'\	4cc'\	.
=66	=66	=66
4E-'\ 4B-'\ 4d-'\	4r	.
4r	4b-'/	.
4E-'\ 4B-'\ 4d-'\	4a-'/	.
=67	=67	=67
4E-\ 4B-\ 4d-\	4r	.
4r	4g'/	.
4E-\ 4B-\ 4d-\	4a-'/	.
=68	=68	=68
4E-\ 4B-\ 4d-\	4r	.
4r	4b-'\	.
4E-\ 4B-\ 4d-\	4cc'\	.
=69	=69	=69
4E-\ 4B-\ 4d-\	4r	.
4r	4dd-'\	.
4E-\ 4B-\ 4d-\	4ee-'\	.
=70	=70	=70
4E-\ 4B-\ 4d-\	4r	.
4r	4ff'\	.
4E-\ 4B-\ 4d-\	4ee-'\	.
=71	=71	=71
4E-\ 4B-\ 4d-\	4r	.
4r	4dd-'\	.
4E-\ 4B-\ 4d-\	4cc'\	.
=72	=72	=72
4EE-/ 4BB-/ 4D-/	4r	.
4r	4b-'/	<
4EE-/ 4BB-/ 4D-/	4a-'/	.
=73	=73	=73
4EE-/ 4BB-/ 4D-/	4r	.
4r	4g'/	.
4EE-/ 4BB-/ 4D-/	4f'/	.
=74	=74	=74
4EE-/ 4BB-/ 4D-/	4r	.
4r	4e-'/	.
4EE-/ 4BB-/ 4D-/	4d-'/	.
=75	=75	=75
4EE-/ 4BB-/ 4D-/	4r	.
4r	4c'/	.
4EE-/ 4BB-/ 4D-/	4Bn'/	.
=76	=76	=76
4EE-/ 4BB-/ 4D-/	4r	.
4r	4B-'/	.
4EE-/ 4BB-/ 4D-/	4c'/	.
=77	=77	=77
4EE-/ 4BB-/ 4D-/	4r	.
4r	4d-'/	.
4EE-/ 4BB-/ 4D-/	4G'/	.
=78	=78	=78
*>D1	*>D1	*>D1
[2.AA-/ 2.D-/ [2.E-/	(2.G/ 2.B-/	p
=79	=79	=79
4AA-/] 4C/ 4E-/]	4A-/)	.
4r	4r	.
=80:|!	=80:|!	=80:|!
*>D2	*>D2	*>D2
*^	*	*
4r	4AA-/ 4C/	4A-/	p
(4F#/	4FF#\	2r	.
4G/	4GG\	.	.
*v	*v	*	*
=81	=81	=81
*>E	*>E	*>E
*^	*	*
4C/	4CC\	2.r	.
4E-/	4EE-\	.	.
4G/)	4GG\	.	.
*v	*v	*	*
=82	=82	=82
(4C\	(4c/	.
4E-\	4e-/	.
4G\)	4g/)	.
=83	=83	=83
(4c\	(4gg\	.
4e-\	4ee-\	.
4g\)	4cc\)	.
=84	=84	=84
(4Bn\	(4gg\	.
4dn\	4ddn\	.
4g\)	4bn\)	.
=85	=85	=85
(4BBn\	(4g/	.
4D\	4d/	.
4G\)	4Bn/)	.
=86	=86	=86
(4BB-\	(4g/	.
4D\	4d/	.
4G\)	4B-/)	.
=87	=87	=87
(4B-\	(4gg\	.
4d\	4dd\	.
4g\)	4b-\)	.
=88	=88	=88
(4An\	(4ff\	.
4c\	4cc\	.
4f\)	4an\)	.
=89	=89	=89
(4AAn/	(4f/	.
4C/	4c/	.
4F\)	4A-/)	.
=90	=90	=90
(4AA-/	(4f/	.
4C/	4c/	.
4F\)	4A-/)	.
=91	=91	=91
(4A-\	(4ff\	.
4c\	4cc\	.
4f\)	4a-\)	.
=92	=92	=92
(4G\	(4ee-\	.
4c\	4cc\	.
4e-\)	4g\)	.
=93	=93	=93
4CC'/ 4C'/	4e-'/ 4ee-'/	f
4GG'/	4an'/	.
4AAn'/	4g'/	.
=94	=94	=94
4DD'/ 4D'/	4d'/ 4dd'/	.
4GG'/	4b-'/	.
4BB-'/	4g'/	.
=95	=95	=95
4DD'/ 4D'/	4d'/ 4dd'/	.
4FF#'/	4an'/	.
4AAn'/	4f#'/	.
=96	=96	=96
4GGG'/ 4GG'/	4g'/	p
(4EE-/	4r	.
4DD/)	4r	.
=97	=97	=97
*^	*	*
8r	4CC'\	2.r	p
(4C/	.	.	.
.	4EE-'\	.	.
4E-/	.	.	.
.	4GG'\	.	.
[8G/)	.	.	.
=98	=98	=98	=98
8G/]	4C'\	8r	.
8r	.	(4c/	.
2r	4E-'\	.	.
.	.	4e-/	.
.	4G'\	.	.
.	.	8g/)	.
*v	*v	*	*
=99	=99	=99
4c'\	8r	.
.	(4gg\	.
4e-'\	.	.
.	4ee-\	.
4g'\	.	.
.	8cc\)	.
=100	=100	=100
4Bn'\	8r	.
.	(4gg\	.
4d'\	.	.
.	4dd\	.
4g'\	.	.
.	8bn\)	.
=101	=101	=101
4BBn'\	8r	.
.	(4g/	.
4D'\	.	.
.	4d/	.
4G'\	.	.
.	8B-/)	.
=102	=102	=102
4BB-'\	8r	.
.	(4g/	.
4D'\	.	.
.	4d/	.
4G'\	.	.
.	8B-/)	.
=103	=103	=103
4B-'\	8r	.
.	(4gg\	.
4d'\	.	.
.	4dd\	.
4g'\	.	.
.	8b-\)	.
=104	=104	=104
4An'\	8r	.
.	(4ff\	.
4c'\	.	.
.	4cc\	.
4f'\	.	.
.	8an\)	.
=105	=105	=105
4AAn'/	8r	.
.	(4f/	.
4C'\	.	.
.	4c/	.
4F'\	.	.
.	8A-/)	.
=106	=106	=106
4AA-'/	8r	.
.	(4f/	.
4C'\	.	.
.	4c/	.
4F'\	.	.
.	8A-/)	.
=107	=107	=107
4A-'\	8r	.
.	(4ff\	.
4c'\	.	.
.	4cc\	.
4f'\	.	.
.	8a-\)	.
=108	=108	=108
4G'\	8r	.
.	(4ee-\	.
4c'\	.	.
.	4cc\	.
4e-'\	.	.
.	8g/)	.
=109	=109	=109
4CC'/ 4C'/	8r	.
.	(4e-/ 4ee-/	f
4GG'/	.	.
.	4an/	.
4AAn'/	.	.
.	8g/)	.
=110	=110	=110
4DD'/ 4D'/	8r	.
.	(4d/ 4dd/	.
4GG'/	.	.
.	4b-/	.
4BB-'/	.	.
.	8g/)	.
=111	=111	=111
4DD'/ 4D'/	8r	.
.	(4d/ 4dd/	.
4FF#'/	.	.
.	4an/	.
4AAn'/	.	.
.	8f#/)	.
=112	=112	=112
4GGG/ (4GG/	4g/	p
4FFn/	4r	.
4EEn/	4r	.
=113	=113	=113
*^	*	*
8r	4DD-'\)	2.r	p
(4B-/	.	.	.
.	4FF'\	.	.
4F/	.	.	.
.	4BB-'\	.	.
8D-/)	.	.	.
=114	=114	=114	=114
8r	4CC'\	2.r	.
(4B-/	.	.	.
.	4EEn'\	.	.
4En/	.	.	.
.	4BB-'\	.	.
8C/)	.	.	.
*v	*v	*	*
=115	=115	=115
4EEn'/	8r	.
.	(4b-/	.
4GG'/	.	.
.	4g/	.
4C'/	.	.
.	8c/)	.
=116	=116	=116
4FF'/	8r	.
.	(4a-/	.
4AA-'/	.	.
.	4f/	.
4C'/	.	.
.	8c/)	.
=117	=117	=117
*^	*	*
8r	4CC'\	2.r	.
(4A-/	.	.	.
.	4EE-'\	.	.
4E-/	.	.	.
.	4AA-'\	.	.
8C/)	.	.	.
=118	=118	=118	=118
8r	4BBBn'\	2.r	.
(4G/	.	.	.
.	4DD'\	.	.
4D/	.	.	.
.	4GG'\	.	.
8BBn/)	.	.	.
*v	*v	*	*
=119	=119	=119
4BBn'\	8r	.
.	(4ff\	.
4D'\	.	.
.	4dd\	.
4G'\	.	.
.	8g/)	.
=120	=120	=120
4C'\	8r	.
.	(4ee-\	.
4E-'\	.	.
.	4cc\	.
4G'\	.	.
.	8g/)	.
=121	=121	=121
*^	*	*
8r	4CC'\	2.r	.
(4C/	.	.	.
.	4EE-'\	.	.
4E-/	.	.	.
.	4GG'\	.	.
8G/)	.	.	.
*v	*v	*	*
=122	=122	=122
4C'\	8r	.
.	(4c/	.
4E-'\	.	.
.	4e-/	.
4G'\	.	.
.	8g/)	<
*clefG2	*	*
=123	=123	=123
4c'/	8r	.
.	(4aa-\	.
4e-'/	.	.
.	4ee-\	.
4a-'/	.	.
.	8cc\)	.
=124	=124	=124
4Bn'/	8r	.
.	(4aa-\	.
4d'/	.	.
.	4dd\	.
4a-'/	.	.
.	8bn\)	.
*clefF4	*	*
=125	=125	=125
4BBn'\	8r	.
.	(4a-/	.
4D'\	.	.
.	4d/	.
4A-'\	.	.
.	8Bn/)	.
=126	=126	=126
4BB-'\	8r	.
.	(4g/	.
4D'\	.	.
.	4d/	.
4G'\	.	.
.	8B-/)	.
=127	=127	=127
4B-'\	8r	.
.	(4gg\	.
4d'\	.	.
.	4dd\	.
4g'\	.	.
.	8b-\)	.
=128	=128	=128
4An'\	8r	.
.	(4gg\	.
4c'\	.	.
.	4cc\	.
4g'\	.	.
.	8an\)	.
=129	=129	=129
4AAn'/	8r	.
.	(4g/	.
4C'/	.	.
.	4c/	.
4G'\	.	.
.	8A-/)	.
=130	=130	=130
4AA-'/	8r	.
.	(4f/	.
4C'/	.	.
.	4c/	.
4F'\	.	.
.	8A-/)	.
=131	=131	=131
4A-'\	8r	.
.	(4ff\	.
4c'\	.	.
.	4cc\	.
4f'\	.	.
.	8a-\)	.
=132	=132	=132
4G'\	8r	.
.	(4ee-\	.
4c'\	.	.
.	4cc\	.
4e-'\	.	.
.	8g/)	.
=133	=133	=133
4FF#'/ 4F#'/	8r	.
.	(4c/ 4cc/	f
4C'/	.	.
.	4an/	.
4E-'/	.	.
.	8e-/)	.
=134	=134	=134
4GG'/ 4G'/	8r	.
.	(4c/ 4cc/	.
4C'/	.	.
.	4g/	.
4E-'/	.	.
.	8e-/)	.
=135	=135	=135
4GG'/ 4G'/	8r	.
.	(4Bn/ 4bn/	.
4BBn'/	.	.
.	4g/	.
4D'/	.	.
.	8d/)	.
=136	=136	=136
4CC'/ 4C'/	8r	.
.	(4c/ 4cc/	.
4EEn'/	.	.
.	4g/	.
4GG'/	.	.
.	8en/)	.
=137	=137	=137
4CC'/ 4C'/	8r	.
.	(4c/ 4cc/	.
4FF'/	.	.
.	4a-/	.
4AA-'/	.	.
.	8f/)	.
=138	=138	=138
4CC'/ 4C'/	8r	.
.	(4c/ 4cc/	.
4GG'/	.	.
.	4b-/	.
4BB-'/	.	.
.	8g/)	.
=139	=139	=139
4CC'/ 4C'/	8r	.
.	(4c/ 4cc/	.
4FF'/	.	.
.	4a-/	.
4AA-'/	.	.
.	8f/)	.
=140	=140	=140
*	*^	*
4G'\	8r	4g'\	ff
.	4cc/ (4ccc/	.	.
4En'\	.	4en'\	.
.	4een/	.	.
4C'\	.	4c'\	.
.	8gg/)	.	.
=141	=141	=141	=141
4A-'\	8r	4a-'\	.
.	4cc/ (4ccc/	.	.
4F\	.	4f\	.
.	4ff/	.	.
4C'\	.	4c'\	.
.	8aa-/)	.	.
=142	=142	=142	=142
4B-'\	8r	4b-'\	.
.	4cc/ (4ccc/	.	.
4G'\	.	4g'\	.
.	4gg/	.	.
4C'\	.	4c'\	.
.	8bb-/)	.	.
=143	=143	=143	=143
4A-'\	8r	4a-'\	.
.	4cc/ (4ccc/	.	.
4F'\	.	4f'\	.
.	4ff/	.	.
4C'\	.	4c'\	.
.	8aa-/)	.	.
=144	=144	=144	=144
4C'\	8r	4c'\	.
.	4cc/ 4ccc/	.	.
2r	.	4g'\	.
.	4gg/	.	.
.	.	4en'\	.
.	[8een/	.	.
=145	=145	=145	=145
4r	8ee/]	4c'\	.
.	4cc/	.	.
4G'\	.	2r	.
.	4g/	.	.
4En'\	.	.	.
.	[8en/	.	.
*	*v	*v	*
=146	=146	=146
*^	*	*
4.r	4C'\	8e/]	.
.	.	4c/	.
.	4GG'\	.	.
4G/	.	4.r	.
.	4EEn'\	.	.
[8En/	.	.	.
=147	=147	=147	=147
8E/]	4CC'\	2.r	.
4C/	.	.	.
.	4GG\	.	.
4G/	.	.	.
.	4EEn'\	.	.
[8En/	.	.	.
=148	=148	=148	=148
4E/]	2.CC;\	2.r;	.
2C;/	.	.	.
*v	*v	*	*
=	=	=
*-	*-	*-
!!!ENC: Craig Stuart Sapp
!!!END: 2008/02/25/
